symbolic/32x32/apps/distributor-logo-archlinux.svg

<svg xmlns="http://www.w3.org/2000/svg" width="32" height="32" version="1.1">
 <circle style="opacity:0.2" cx="16" cy="17" r="14"/>
 <circle style="fill:#1793d1" cx="16" cy="16" r="14"/>
 <path style="opacity:0.2" d="m 16.000636,4.6 c -0.890953,2.1826929 -1.428364,3.6123214 -2.419885,5.730107 0.608529,0.644257 1.354198,1.390822 2.565155,2.238157 C 14.843517,12.032293 13.956636,11.49805 13.292234,10.939621 12.023375,13.586671 10.033221,17.353614 5.9999783,24.6 9.1696962,22.770421 11.799818,21.643821 14.08967,21.2131 13.99112,20.790493 13.936264,20.331321 13.94033,19.853864 l 0.0029,-0.09854 c 0.04978,-2.030721 0.935696,-3.832407 2.187288,-3.726757 1.251596,0.10565 1.98177,2.080036 1.930976,4.11075 -0.0092,0.381972 -0.05178,0.7487 -0.126988,1.089015 2.264451,0.443935 4.9406,1.567485 8.065516,3.371664 -0.61665,-1.134722 -1.169306,-2.155672 -1.694532,-3.129886 -0.827957,-0.642028 -1.689444,-1.477071 -3.451019,-2.3812 1.209942,0.314922 2.07955,0.676572 2.755131,1.082922 C 18.265909,10.222629 17.832114,8.9007786 16.000443,4.6006071 Z"/>
 <path style="fill:#ffffff" d="M 16.000636,3.6 C 15.109683,5.7826929 14.572272,7.2123214 13.580751,9.3301071 14.18928,9.974364 14.934949,10.720929 16.145906,11.568264 14.843517,11.032293 13.956636,10.49805 13.292234,9.939621 12.023375,12.586671 10.033221,16.353614 5.9999783,23.6 9.1696962,21.770421 11.799818,20.643821 14.08967,20.2131 13.99112,19.790493 13.936264,19.331321 13.94033,18.853864 l 0.0029,-0.09854 c 0.04978,-2.030721 0.935696,-3.832407 2.187288,-3.726757 1.251596,0.10565 1.98177,2.080036 1.930976,4.11075 -0.0092,0.381972 -0.05178,0.7487 -0.126988,1.089015 2.264451,0.443935 4.9406,1.567485 8.065516,3.371664 -0.61665,-1.134722 -1.169306,-2.155672 -1.694532,-3.129886 -0.827957,-0.642028 -1.689444,-1.477071 -3.451019,-2.3812 1.209942,0.314922 2.07955,0.676572 2.755131,1.082922 C 18.265909,9.2226286 17.832114,7.9007786 16.000443,3.6006071 Z"/>
 <path style="fill:#ffffff;opacity:0.2" d="M 16 2 A 14 14 0 0 0 2 16 A 14 14 0 0 0 2.0214844 16.585938 A 14 14 0 0 1 16 3 A 14 14 0 0 1 29.978516 16.414062 A 14 14 0 0 0 30 16 A 14 14 0 0 0 16 2 z"/>
</svg>

<svg xmlns="http://www.w3.org/2000/svg" width="32" height="32"><circle style="opacity:.2" cx="16" cy="17" r="14"/><circle style="fill:#1793d1" cx="16" cy="16" r="14"/><path style="opacity:.2" d="M16 4.6c-.89 2.183-1.428 3.612-2.42 5.73.61.644 1.355 1.39 2.566 2.238-1.302-.536-2.19-1.07-2.854-1.628C12.023 13.587 10.033 17.354 6 24.6c3.17-1.83 5.8-2.956 8.09-3.387a5.788 5.788 0 0 1-.15-1.36l.003-.098c.05-2.03.936-3.832 2.188-3.726 1.251.105 1.981 2.08 1.93 4.11-.009.382-.051.749-.126 1.09 2.264.443 4.94 1.567 8.065 3.371-.617-1.135-1.17-2.156-1.695-3.13-.827-.642-1.689-1.477-3.45-2.381 1.21.315 2.079.676 2.755 1.083C18.266 10.222 17.832 8.9 16 4.6z"/><path style="fill:#fff" d="M16 3.6c-.89 2.183-1.428 3.612-2.42 5.73.61.644 1.355 1.39 2.566 2.238-1.302-.536-2.19-1.07-2.854-1.628C12.023 12.587 10.033 16.354 6 23.6c3.17-1.83 5.8-2.956 8.09-3.387a5.788 5.788 0 0 1-.15-1.36l.003-.098c.05-2.03.936-3.832 2.188-3.726 1.251.105 1.981 2.08 1.93 4.11-.009.382-.051.749-.126 1.09 2.264.443 4.94 1.567 8.065 3.371-.617-1.135-1.17-2.156-1.695-3.13-.827-.642-1.689-1.477-3.45-2.381 1.21.315 2.079.676 2.755 1.083C18.266 9.222 17.832 7.9 16 3.6z"/><path style="fill:#fff;opacity:.2" d="M16 2A14 14 0 0 0 2 16a14 14 0 0 0 .021.586A14 14 0 0 1 16 3a14 14 0 0 1 13.979 13.414A14 14 0 0 0 30 16 14 14 0 0 0 16 2z"/></svg>
